X:0
T:Fiddlist, The
M:C|
C:© Paul Gitlitz 2008
K:Bm
"Bm"B2(~BA) BcdB|"D"AFDF AFAd|"Bm"B2(~BA) BcdB|"A"({fa} fe)(dc)"Bm"B3F|!
"Bm"B2(~BA) BcdB|"D"AFDF "F#m"Ad({cd}c)A|"Bm"B2(~BA) Bcde|1"A"({fa}fe)(dc)"Bm"B3(e:|2"A"({fa}fe)(dc)"Bm"B2ag|!
|:"Bm"(fB)Bf BB(af)|"G"(gB)Bg BB(ag)|"Bm"(fB)Bf BB(gf)|"A"(eA)Ae (ef)(ge)|!
"Bm"(fB)Bf BB(af)|"G"(gB)Bg BB(ag)|"Bm"(fB)Bf fB(fa)|1"A"({fa}fe)(dc)"Bm"B2ag:|2"A"({fg}fe)(dc)"Bm"B4|]
